X: 8503
T: Creel Of Turf, The
R: jig
M: 6/8
K: Eminor
|:EBB BAG|Fdd AFD|EBB EBB|AGF EFD|
EBB BAG|Fdd AB^c|ded BGB|AGF E2D:|
|:Bee ede|fef dBA|Bee Bee|fe^c d2A|
Bee ede|fef dBA|BdB GBd|AGF E2E:|

